X:520
T: Off She Goes
S: "Johnny O'Leary of Sliabh Luachra" (#98)
Z: B.Black
L: 1/8
M: 12/8
R: slide
Q: 360
K: D
F2A G2B ABc d3|FAF G2B AFD E2D|
F2A G2B ABc d2e fed g2f ecA d3|
F/G/AF G2B ABc d2d|F/G/AF G2B AFD E/F/ED|
F2A GBG ABc d2e|fed gzf ecA d3||
f3 def gfg efg|fza d3 ecA A3|
faf def gfg efg|fza g2f ecA d3|
f3 def gfg efg|fgf dcd ecA A2e|
faf def gfg efg|fza g2f ecA d3||
